icons/speech-bubble-outline.svg

<svg xmlns="http://www.w3.org/2000/svg" width="24" height="24" viewBox="0 0 24 24">
  <path d="M15,3 L9,3 C4.49099359,3 1,6.5377729 1,11 C1,15.3634999 4.27285013,19 8,19 L8,20 C8,21.4937799 9.57755795,22.4597178 10.9086251,21.7821926 L11.2369286,21.6140163 L11.5946555,21.4238497 L11.8907103,21.256749 C12.948642,20.6393906 13.7103901,19.9663638 14.4215793,19.0906275 L14.492,19 L15,19 C19.5522847,19 23,15.5522847 23,11 C23,6.44771525 19.5522847,3 15,3 Z M9,5 L15,5 C18.4477153,5 21,7.55228475 21,11 C21,14.4477153 18.4477153,17 15,17 L14,17 C13.6817197,17 13.3824481,17.1515119 13.194037,17.4080341 C12.4641772,18.4017399 11.7740931,19.0468761 10.6455572,19.6634269 L10.3113445,19.8411503 L10,19.999 L10,18 C10,17.4477153 9.55228475,17 9,17 L8,17 C5.42714987,17 3,14.3031668 3,11 C3,7.6364271 5.60156611,5 9,5 Z"/>
</svg>

<svg xmlns="http://www.w3.org/2000/svg" viewBox="0 0 24 24">
  <path d="M15 3H9c-4.5 0-8 3.54-8 8 0 4.36 3.27 8 7 8v1a2 2 0 0 0 2.9 1.78l.34-.17.35-.19.3-.16a8.85 8.85 0 0 0 2.53-2.17l.07-.09H15c4.55 0 8-3.45 8-8s-3.45-8-8-8zM9 5h6c3.45 0 6 2.55 6 6s-2.55 6-6 6h-1a1 1 0 0 0-.8.4 7.16 7.16 0 0 1-2.55 2.26l-.34.18L10 20v-2a1 1 0 0 0-1-1H8c-2.57 0-5-2.7-5-6 0-3.36 2.6-6 6-6z"/>
</svg>
